X:452
T: O heilige Zeit (5-48), S. 79f
N: P0722
O: Lothringen
S: MERKELBACH-PINCK, Angelika: Verklingende Weisen, Bd 5, Kassel 1962]
R: geistliches, religises Lied]
M: 4/4
L: 1/8
K: C
G2 | c4B2A2 | G6G2 | A4G2F2 | E6
G2 | G2F2F2E2 | D3EF2A2 | A2G2^F2A2 | G6
G2 | c4B2A2 | G6G2 | A4G2F2 | E6
G2 | G2F2F2E2 | D3EF2A2 | A2G2^F2A2 | G6
G2 | G2c2c2c2 | c3de2
c2 | B2d2d2d2 | d3ef2
d2 | e4d2d2 | c4z2
f2 | e2c2d2d2 | c6

@@@ Tune index: 8002
